X:1
T:Title
%%score { ( 1 3 ) | 2 }
L:1/8
M:4/4
K:Eb
V:1 treble nm="Grand Piano"
V:3 treble 
V:2 bass 
V:1
 z4 z2[Q:1/4=100] B>c | B2 D2 D2 B>c | B2 D2 D2 [DB][DB] | [Fd]2 [Ec]2 [DB]2 [DF]2 |[M:3/4] [EG]6 | %5
[M:1/4] [FA][EG] |[M:4/4] [DF]2 [Dc]2 [Dc]2 [DA][DG] | [DF]2 [DB]2 [DB]2 ee | d2 B2 G2 =A2 | %9
 [DB]6 z2 | GFGA [GB]2 [Ge][Bd] | [Ac]2 [CF]2 [CF]2 FG | A2 [Fc]2 [FB]2 [DA]2 | [EG]6 z2 | %14
 [GB][_G=A][=GB][_Ac] [GB]2 GE |[M:9/8] e2 =B- B c2- cAG |[M:4/4] F2 BA [B,DG]2 [A,DF]2 | %17
[M:3/4] [G,E]6 |] %18
V:2
 z4 z2 [E,G,E]>[E,A,E] | [E,G,E]2 [F,A,B,]2 [F,A,B,]2 [E,G,E]>[E,A,E] | %2
 [E,G,E]2 [F,A,B,]2 [B,,A,B,]2 [B,,F,][B,,F,] | [B,,B,]2 [B,,B,]2 [B,,B,]2 [B,,B,]2 | %4
[M:3/4] [E,B,]6 |[M:1/4] [E,B,][E,B,] |[M:4/4] [B,,B,]2 [B,,F,]2 [B,,F,]2 [B,,B,][B,,B,] | %7
 [B,,B,]2 [B,,F,]2 [B,,F,]2 [G,B,E][G,B,E] | [F,B,F]2 [F,DF]2 [F,CE]2 [F,CE]2 | [B,,B,]6 z2 | %10
 [E,B,E][A,B,D][G,B,E][F,B,F] [E,B,]2 [E,B,][E,E] | [A,E]2 [A,,A,]2 [A,,A,]2 [A,C][G,CE] | %12
 [F,CF]2 [E,A,]2 [D,A,]2 [B,,B,]2 | [E,B,]2 E,2 E,2 z2 | %14
 [E,E][E,E][E,E][E,E] [E,E]2 [E,B,E][E,G,B,] | %15
[M:9/8] [G,B,E]2 [G,DE]- [G,DE] [A,CE]2- [A,CE][A,CE][A,CE] |[M:4/4] [B,D]2 [B,D]2 B,,2 B,,2 | %17
[M:3/4] E,6 |] %18
V:3
 x8 | x8 | x8 | x8 |[M:3/4] x6 |[M:1/4] x2 |[M:4/4] x8 | x8 | x8 | x8 | x8 | x8 | x8 | %13
 z2 B,2 B,2 z2 | x8 |[M:9/8] x9 |[M:4/4] x8 |[M:3/4] x6 |] %18

